X: 21734
T: SHERRIFF MUIR
N: AKA "Kafoozalum"
O: wd set.-- From Gow's Collection
Q: "Slow."
%R: hornpipe, reel
B: W. Hamilton "Universal Tune-Book" Vol. 2 Glasgow 1846 p.173 #4
S: http://s3-eu-west-1.amazonaws.com/itma.dl.printmaterial/book_pdfs/hamiltonvol2web.pdf
Z: 2016 John Chambers <jc:trillian.mit.edu>
M: C
L: 1/8
K: A
% - - - - - - - - - - - - - - - - - - - - - - - - -
|:\
{A}e2ed c>de2 | B>cdc B>cd2 |\
{Ac}e3d c>de2 | A>Bc>A B2A2 :: \
cA (3(ABA) cAc2 | dB (3(BcB d)B d2 |
cA (3(ABA) cAc2 | A>Bc>A B2A2 |\
cA (3(ABA) cAc2 | dB (3(BcB d)B d2 |\
cA (3(ABA) cAc2 | A>Bc>A B2A2 |]
% - - - - - - - - - - - - - - - - - - - - - - - - -

%%sep 1 1 500
%%sep 1 1 500

